X:1
T:Glory Halleluja (Battle Hymn of the Republic)
C:traditional song
M:4/4
L:1/8
K:Bbmaj
|: "Bb"F6 E2 | D2 F2 B2 c2 | d8 | "Bb7" B8 | "Eb" G6 A2 | B2 A2 B2 G2 | "Bb" F8 | D8 |
w:Glo-ry glo-ry hal-le-lu-jah Glo-ry glo-ry hal-le-lu-jah
"Bb"F6 E2 | D2 F2 B2 c2 | "D7" d4 c4 | "Gm7" B4 (3(B2 B2) B2 | "Cm7" c4 c4 | "F7" _B4 A4 | "Bb" (B8 | B4) z4:|
w:Glo-ry glo-ry hal-le-lu hu-jah, and _ his truth is march-ing on
